common/src/main/resources/icons/expui/status/error.svg

<svg xmlns="http://www.w3.org/2000/svg" width="16" height="16" data-big="true" viewBox="0 0 24 24"><path fill="#FF5370" d="M2.2 16.06 3.88 12 2.2 7.94l4.06-1.68L7.94 2.2 12 3.88l4.06-1.68 1.68 4.06 4.06 1.68L20.12 12l1.68 4.06-4.06 1.68-1.68 4.06L12 20.12 7.94 21.8l-1.68-4.06zM13 17v-2h-2v2zm0-4V7h-2v6z"/></svg>

<!--
  - The MIT License (MIT)
  -
  - Copyright (c) 2015-2024 Elior "Mallowigi" Boukhobza
  -
  - Permission is hereby granted, free of charge, to any person obtaining a copy
  - of this software and associated documentation files (the "Software"), to deal
  - in the Software without restriction, including without limitation the rights
  - to use, copy, modify, merge, publish, distribute, sublicense, and/or sell
  - copies of the Software, and to permit persons to whom the Software is
  - furnished to do so, subject to the following conditions:
  -
  - The above copyright notice and this permission notice shall be included in all
  - copies or substantial portions of the Software.
  -
  - THE SOFTWARE IS PROVIDED "AS IS", WITHOUT WARRANTY OF ANY KIND, EXPRESS OR
  - IMPLIED, INCLUDING BUT NOT LIMITED TO THE WARRANTIES OF MERCHANTABILITY,
  - FITNESS FOR A PARTICULAR PURPOSE AND NONINFRINGEMENT. IN NO EVENT SHALL THE
  - AUTHORS OR COPYRIGHT HOLDERS BE LIABLE FOR ANY CLAIM, DAMAGES OR OTHER
  - LIABILITY, WHETHER IN AN ACTION OF CONTRACT, TORT OR OTHERWISE, ARISING FROM,
  - OUT OF OR IN CONNECTION WITH THE SOFTWARE OR THE USE OR OTHER DEALINGS IN THE
  - SOFTWARE.
  -->


<svg data-big="true" xmlns="http://www.w3.org/2000/svg" version="1.1" width="16px" height="16px" viewBox="0 0 24 24">
  <path fill="#FF5370"
        d="M2.2,16.06L3.88,12L2.2,7.94L6.26,6.26L7.94,2.2L12,3.88L16.06,2.2L17.74,6.26L21.8,7.94L20.12,12L21.8,16.06L17.74,17.74L16.06,21.8L12,20.12L7.94,21.8L6.26,17.74L2.2,16.06M13,17V15H11V17H13M13,13V7H11V13H13Z"/>
</svg>
